X:366
T:St.Martin's Lane. (p)1696.PLFD.366
M:4/4
L:1/4
Q:1/2=100
S:Playford, Dancing Master,9th Ed,1st Supp.,1696.
O:England
H:1696.
Z:Chris Partington
K:Bb
B/c/ |\
dddd | e2c2 | dc/B/Ad | BGGB/c/ | dddd | e2c2 | dc/B/ A/B/A/G/ | G3 :|
|: e/f/ |\
gggg/d/ | e2c2 | fff/g/f/e/ | d3e/f/ | gGGg | fFFf/e/ | dfc>B | B3d/e/ | ffff |
^ffff | ggg3/2f/4g/4 | aaaa | bb/^f/ga | ^f3g/a/ | bBBb | aAAa | gGGg | ^fgg>f | g3 :|
